trunk/public/assets/images/icons/blue/refresh/doit.svg

<svg width="16" height="16" xmlns="http://www.w3.org/2000/svg" viewBox="0 0 16 16" shape-rendering="geometricPrecision" fill="#24437c"><defs><mask id="a"><rect fill="#fff" width="100%" height="100%"/><path d="M17.514 2.67l-.862-.55L16.65-1h-2.866v.558c-1.334-.3-2.758.103-3.723 1.067-1.568 1.57-1.553 4.14.036 5.732.78.777 1.81 1.205 2.9 1.205 1.072 0 2.078-.415 2.832-1.168C16.585 5.64 17 4.63 17 3.557V2.67h.514zm-3.373.888c0 .22-.057.54-.332.813-.443.444-1.23.427-1.69-.034-.475-.475-.49-1.234-.036-1.69.01-.01.02-.02.033-.03v.922h2.026v.02z" fill="#000"/></mask></defs><path d="M13.114 2.537h2.538V0h-.868v1.105c-1.204-.927-2.924-.863-4.016.227-1.187 1.188-1.162 3.12.035 4.317 1.2 1.197 3.13 1.223 4.32.036.584-.584.878-1.357.877-2.128h-.86c0 .558-.207 1.103-.626 1.522-.843.842-2.23.836-3.104-.036-.87-.872-.877-2.26-.035-3.105.73-.728 1.86-.82 2.72-.27h-.982v.867z" fill="#cb1800"/><g mask="url(#a)"><ellipse cx="6.496" cy="3.368" rx="1.771" ry=".427"/><ellipse cx="10.762" cy="3.368" rx="1.772" ry=".427"/><path d="M8.268 3.573v.704c-.276.075-.448.173-.448.282 0 .234.793.426 1.77.426.978 0 1.77-.19 1.77-.427 0-.236-.792-.428-1.77-.428-.213 0-.414.01-.604.027v-.587h-.718z"/><path d="M12.533 3.573v1.15c0 .185-.49.34-1.172.4v.79c0 .235-.792.427-1.77.427-.977 0-1.77-.19-1.77-.427h-.006v-.907c-.194.053-.44.093-.718.118v.79c0 .235-.793.427-1.77.427-.98 0-1.772-.19-1.772-.426H3.55V4.522h.02c-.006.012-.016.024-.016.037 0 .234.793.426 1.77.426.98 0 1.772-.19 1.772-.427 0-.236-.793-.428-1.77-.428-.214 0-.415.01-.605.027v-.587h-.28L.974 7.038v6.88H11.56l3.466-3.466v-6.88h-2.493zm-1.725 9.493H1.883v-5.31h8.925v5.31zm3.7-3.16l-2.637 2.636v-5.15l2.638-2.637v5.152z"/></g></svg>

<?xml version="1.0"?><!DOCTYPE svg PUBLIC "-//W3C//DTD SVG 1.1//EN" "http://www.w3.org/Graphics/SVG/1.1/DTD/svg11.dtd"><svg width="16px" height="16px" xmlns="http://www.w3.org/2000/svg" viewBox="0 0 16 16" shape-rendering="geometricPrecision" fill="#24437c"><defs><mask id="refresh-path"><rect fill="#fff" width="100%" height="100%"/><path d="M17.514,2.671l-0.862-0.552L16.65-1h-2.866v0.558c-1.334-0.3-2.758,0.103-3.723,1.067 c-1.569,1.569-1.554,4.141,0.035,5.732c0.779,0.777,1.809,1.205,2.901,1.205c1.071,0,2.077-0.415,2.831-1.168 C16.585,5.639,17.001,4.631,17,3.557l0-0.886H17.514z M14.141,3.558c0,0.22-0.058,0.539-0.333,0.813 c-0.443,0.443-1.23,0.426-1.69-0.035c-0.475-0.475-0.49-1.234-0.036-1.689c0.011-0.011,0.021-0.022,0.033-0.031l0,0.922h2.026 V3.558z" fill="#000"/></mask></defs><path display="inline" d="M13.114,2.537h2.538L15.651,0h-0.867v1.105 c-1.204-0.927-2.924-0.863-4.016,0.227C9.581,2.52,9.606,4.451,10.803,5.649c1.201,1.198,3.131,1.224,4.319,0.037 C15.707,5.102,16.001,4.329,16,3.558l-0.859,0.001c-0.001,0.557-0.208,1.102-0.627,1.521c-0.843,0.842-2.231,0.836-3.104-0.036 c-0.871-0.872-0.877-2.26-0.035-3.105c0.729-0.727,1.86-0.818,2.721-0.268h-0.983L13.114,2.537z" fill="#cb1800"/><g mask="url(#refresh-path)"><ellipse cx="6.496" cy="3.368" rx="1.771" ry="0.427"/><ellipse cx="10.762" cy="3.368" rx="1.772" ry="0.427"/><path d="M8.268,3.573v0.704C7.992,4.352,7.82,4.45,7.82,4.559c0,0.235,0.793,0.427,1.77,0.427 c0.978,0,1.771-0.191,1.771-0.427c0-0.235-0.793-0.427-1.771-0.427c-0.213,0-0.414,0.01-0.604,0.027V3.573H8.268z"/><path d="M12.533,3.573v1.15c0,0.185-0.49,0.34-1.172,0.4v0.79c0,0.235-0.793,0.427-1.771,0.427 c-0.977,0-1.77-0.191-1.77-0.427H7.814V5.006C7.62,5.059,7.375,5.099,7.096,5.124v0.79c0,0.235-0.793,0.427-1.771,0.427 c-0.978,0-1.771-0.191-1.771-0.427H3.549V4.522h0.02C3.564,4.534,3.554,4.546,3.554,4.559c0,0.235,0.793,0.427,1.771,0.427 c0.979,0,1.771-0.191,1.771-0.427c0-0.235-0.793-0.427-1.771-0.427c-0.213,0-0.414,0.01-0.604,0.027V3.573H4.439L0.975,7.038 v6.879h10.586l3.465-3.465V3.573H12.533z M10.808,13.066H1.883V7.755h8.925V13.066z M14.508,9.907l-2.637,2.635V7.391l2.637-2.636 V9.907z"/></g></svg>
